X:1
T:Title
%%score { ( 1 2 ) | ( 3 4 ) }
L:1/8
M:6/8
K:F
V:1 treble nm="Grand Piano"
V:2 treble 
V:3 bass 
V:4 bass 
V:1
 z3 z z[Q:1/4=81] z/ G/ | A>GA c2 A | G F2- F2 A/c/ | d2 [Gd] [_Ad]2 [Ad] | %4
[M:5/8] [Ac]-[Ac]- [Ac]3 |[M:1/8] z/ G/ |[M:3/4] A>G A c2 A | GF- F3 F/-[DFG]/ | %8
 [CFA]>[CG] [A,CF] [B,CG]2 [F,A,CF] |[M:5/8] [F,A,CF]-[F,A,CF]- [F,A,CF]3 |[M:1/8] c | %11
[M:3/4] cG A B2 d | dc- c3 [Gc] | [Af]e d c2 =B |[M:5/8] d3 c2 |[M:1/8] z/ G/ |[M:3/4] A>G A c2 A | %17
 [DFG][DF]- [DF]3 [^CF] | [CFA]>[CG] [A,CF] [B,CG]2 [F,A,CF] | %19
[M:5/8] [F,A,CF]-[F,A,CF]- [F,A,CF]3 |] %20
V:2
 z3 z2 F | x6 | x6 | x6 |[M:5/8] x5 |[M:1/8] F |[M:3/4] x6 | z2 z2 z .B, | x6 |[M:5/8] x5 | %10
[M:1/8] x |[M:3/4] x6 | x6 | x6 |[M:5/8] x5 |[M:1/8] F |[M:3/4] x6 | x6 | x6 |[M:5/8] x5 |] %20
V:3
 z3 z2 A,/B,/ | .C3 z3 | [F,B,F] [F,A,]2- [F,A,]2 [F,CF] | [F,B,F]2 [F,B,] [F,=B,]2 [F,B,] | %4
[M:5/8] [F,C]-[F,C]- [F,C]3 |[M:1/8] A,/ z/ |[M:3/4] C2 z2 z2 | [F,B,F][F,A,]- [F,A,]3 A,,/B,,/ | %8
 z z/ B,/ C, C,2 F,, |[M:5/8] F,,-F,,- F,,3 |[M:1/8] E |[M:3/4][K:treble] E2 F G2 B | BA- A3 E | %13
 z G [FA] [EG]2 [DG] |[M:5/8] G3- [EG]2 |[M:1/8][K:bass] A,/ z/ |[M:3/4] C2 z2 z2 | %17
 B,,B,,- B,,3 z/ G/ | z z/ B,/ C, C,2 F,, |[M:5/8] F,,-F,,- F,,3 |] %20
V:4
 z3 z2 F, | [F,F]->[F,B,F][F,CF] [F,A,F]2 [F,CF] | x6 | x6 |[M:5/8] x5 |[M:1/8] F,/-[F,B,]/ | %6
[M:3/4] [F,F]->[F,B,F] [F,CF] [F,A,F]2 [F,CF] | x6 | C,2 z2 z2 |[M:5/8] x5 |[M:1/8] x | %11
[M:3/4][K:treble] x6 | x6 | D2 z2 z2 |[M:5/8] F3 z2 |[M:1/8][K:bass] F,/-[F,B,]/ | %16
[M:3/4] [F,F]->[F,B,F] [F,CF] [F,A,F]2 [F,CF] | z2 z2 z B,, | C,2 z2 z2 |[M:5/8] x5 |] %20

